!!!!SEGMENT: 008-1-Sm-004-violoncello.krn
!!!COM: F. Chopin
!!!OPS: Op. 8
!!!PTL: Premier Trio | pour Piano, Violon et Violoncelle
!!!PPR: M. Schlesinger
!!!PPP: Paris
!!!NIFC-rismID: 300605222
!!!NIFC-shelfmark: PL-Wbfc 2213/n
!!!OMD: M.M. [quarter]=104. Allegretto.
**kern	**dynam
*part2	*part2
*I"FINALE.	*
*staff2	*
*clefF4	*
*k[b-e-]	*
*g:	*
*M2/4	*
=	=
8r	.
=1	=1
2rF	.
=2	=2
2rF	.
=3	=3
2rF	.
=4	=4
2rF	.
=5	=5
2rF	.
=6	=6
2rF	.
=7	=7
2rF	.
=8	=8
2rF	.
=9	=9
2rF	.
=10	=10
2rF	.
=11	=11
2rF	.
=12	=12
2rF	.
=13	=13
2rF	.
=14	=14
2rF	.
=15	=15
2rF	.
=16	=16
2rF	.
=17	=17
2rF	.
=18	=18
2rF	.
*clefC4	*
=19	=19
*clefC4	*
!LO:TX:t=P:problem: klucz C4 przed kreską taktową	!
(>2g	p
=20	=20
2f#X)	.
=21	=21
(>2c#	.
=22	=22
2d)	.
*clefF4	*
=23	=23
(>2A	.
=24	=24
8D)	.
8r	.
4r	.
=25	=25
2rF	.
=26	=26
2rF	.
=27	=27
4r	.
8r	.
(>8D	.
*clefC4	*
=28	=28
4d)	.
(>16c#XLL	.
16d	.
16en	.
16f#XJJ)	.
!!LO:LB:g=original
=29	=29
8g`>L	.
8B-`>J	.
4d^<	.
=30	=30
4A\	.
(</16G#XLL	.
16A	.
16B-	.
16AJJ)	.
=31	=31
8Gny/`<L	.
8B-`<J	.
4D	.
=32	=32
4d	.
(>16c#XLL	.
16d	.
16e-	.
16dJJ)	.
=33	=33
8gL	.
8B-J	.
(>4c#X^<	.
=34	=34
8d`>)	.
.	>
(>16B-LL	.
16AJJ	.
8G/L	.
.	]
8F#XJ	.
=35	=35
4G/)	.
8r	.
*clefF4	*
!	!LO:DY:rj
!LO:TX:a:t=con fuoco.	!
8DD`<	f
=36	=36
8GG`<	.
8r	.
(>8DL	<
16dL	.
16cJJ	[
=37	=37
8B-\L	>
8GJ)	]
8r	.
8D	.
!!LO:LB:g=original
=38	=38
(>8GL	<
8B-	[
8A	.
(>8AAJ)	.
=39	=39
4D)	.
*clefC4	*
(>8AL	.
16aL	.
16gJJ	.
=40	=40
8fL	.
8dJ)	.
8r	.
*clefF4	*
8AA'<	.
=41	=41
8DD'>	.
8r	.
(>8DL	.
16dL	.
16cJJ	.
=42	=42
16B-LL	.
16A	.
16B-^<	.
16GJJ	.
16c^<LL	.
16A	.
16d^<	.
16DJJ	.
=43	=43
8G)	.
8r	.
4r	.
=44	=44
4r	.
8r	.
*clefC4	*
[<8G	.
=45	=45
8GL]	.
(>16gL	.
16fJJ	.
8e-L	.
8cJ	.
=46	=46
8f)	.
8r	.
8r	.
*clefG2	*
[<8c	.
!!LO:LB:g=original
=47	=47
!LO:TX:t=P:mixed beam:problem	!
8c/L]	.
(>16cc\L	<
16b-\JJ	[
8a-XL	>
8fJ)	]
*clefF4	*
=48	=48
(>8FL	<
8G	.
8cJ)	[
8r	.
*clefC4	*
=49	=49
(>8cL	.
8dJ	.
8G\L)	.
(>16gL	<
16fJJ	[
=50	=50
8e-L	[
8enJ	.
8f\)	.
8r	.
*clefF4	*
=51	=51
!	!LO:DY:rj
(>\8DL	p
8En	.
8FJ)	.
8r	.
=52	=52
8r	.
(<8D/L	f
8C	.
8BB-J	.
=53	=53
8AA)	.
8r	.
8r	.
(>\8D	.
=54	=54
8C'>/)	.
8r	.
8r	.
(>8F	.
!!LO:LB:g=original
=55	=55
8En)	.
8r	.
8r	.
(<8AA	.
=56	=56
8AA)	.
4BB-^	.
(<8BB-	.
=57	=57
8AA)	.
8r	.
4r	.
=58	=58
2rF	.
=59	=59
2rF	.
=60	=60
4r	.
8r	.
(>8AA	.
=61	=61
4A	>
4D	]
=62	=62
8GL)	.
(>8GJ	.
(>4En)	.
=63	=63
4A)	>
4D	]
=64	=64
8GL	]
8GJ	.
16qqG/LL	.
16qqF/JJ	.
4En\	.
=65	=65
(>4A	<
4Bn	[
=66	=66
8dL	>
8c	.
8B-X	.
8AJ)	]
!!LO:PB:g=original
=67	=67
!LO:TX:t=P:problem:diminuendolike accent	!
(>4c^<	[
8GL	.
8cJ	.
=68	=68
4A	.
4F)	.
=69	=69
(>4B-^<	.
4F	.
=70	=70
8AL)	.
8AJ	.
16qqA/LL	.
16qqG/JJ	.
4F	.
=71	=71
(>4B-^<	.
4F	.
=72	=72
8AL)	.
(>8AJ	.
4F)	.
=73	=73
!LO:TX:t=P:problem:diminuendolike accent	!
(>4G^<	.
4F	.
=74	=74
4En)	.
(>4A	.
=75	=75
8GL	>
8F	.
8En	.
8DJ)	]
=76	=76
!	!LO:DY:rj
2En^<	p
=77	=77
8D	.
8r	.
8r	.
(>8A	<
=78	=78
4B-X	[
!LO:TX:t=P:problem:diminuendolike accent	!
4C#X^<)	.
=79	=79
2Cn^<	]
!!LO:LB:g=original
=80	=80
(<4BBn	.
4BB-X	.
=81	=81
4AA)	.
(</4D	.
=82	=82
4GG)	.
(<4C	.
=83	=83
4FF)	.
[<4BB-^>	.
=84	=84
4BB-]	.
(>4AA	.
=85	=85
4D	.
4En)	.
=86	=86
!	!LO:DY:rj
8B-'L	p>
(>8B-J	]
4C#X)	.
=87	=87
4D	.
.	<
4En	[[
=88	=88
8B-'L	.
(>8B-J	>
4C#X)	]
=89	=89
8D	]
8r	.
4r	.
=90	=90
.	.
!LO:TX:a:t=1	!
2rF	.
=91	=91
!	!LO:DY:rj
(>4F	p
4D)	.
=92	=92
.	.
!LO:TX:a:t=1	!
2rF	.
=93	=93
!	!LO:DY:rj
[<2GG#X	p
=94	=94
!LO:TX:t=P:"cres." should be above the staff:problem	!LO:HP:a:B:t=cres.
2GG#X_<	<
=95	=95
2GG#X_<	.
=96	=96
2GG#X]	.
!!LO:LB:g=original
=97	=97
4AA	pp
4r	.
=98	=98
.	.
!LO:TX:a:t=1	!
2rF	.
=99	=99
4r	.
(<4AA	.
=100	=100
2BB-	.
=101	=101
4BB-`)	p
4r	.
=102	=102
4r	.
*clefC4	*
(>4e-	.
=103	=103
4f	pp>
4B-	]
=104	=104
!LO:TX:B:t=sempre delicato.	!
8e-L)	.
(>8e-J	.
4c^>)	.
=105	=105
4d	.
8cL	.
8B-J	.
=106	=106
4.G	.
8c	.
=107	=107
2A^<	.
=108	=108
4.G	.
8c	.
=109	=109
8A	.
8r	.
4r	.
=110	=110
2rc	.
=111	=111
2rc	.
=112	=112
2rc	.
=113	=113
2rc	.
=114	=114
2rc	.
=115	=115
2rc	.
=116	=116
2rc	.
=117	=117
2rc	.
=118	=118
2rc	.
=119	=119
2rc	.
=120	=120
2rc	.
=121	=121
2rc	.
=122	=122
2rc	.
=123	=123
2rc	.
=124	=124
2rc	.
=125	=125
2rc	.
=126	=126
2rc	.
=127	=127
2rc	.
=128	=128
2rc	.
=129	=129
2rc	.
=130	=130
2rc	.
=131	=131
2rc	.
=132	=132
2rc	.
=133	=133
2rc	.
=134	=134
2rc	.
=135	=135
2rc	.
=136	=136
2rc	.
*clefF4	*
=137	=137
*clefF4	*
!LO:TX:t=P:problem: klucz F4 przed kreską taktową	!
!	!LO:DY:rj
[2A	p<
=138	=138
2A_	[
=139	=139
!LO:TX:t=P:problem:diminuendolike accent	!
2A^<]	.
!!LO:LB:g=original
=140	=140
8D	.
8r	.
(>8CL	>
16DL	.
16E-JJ	]
=141	=141
8D`>)	.
8r	.
(>8CL	>
16DL	.
16E-JJ	]
=142	=142
8D`>)	.
8r	.
4r	.
=143	=143
4r	.
8r	.
(>8D	.
*clefC4	*
=144	=144
4d)	.
(>16c#XLL	<
16d	.
16en	.
16f#XJJ	[
=145	=145
8gL)	[
(>8B-J	.
4d^<)	.
=146	=146
4A	.
(>16G#XLL	>
16A	.
16B-	.
16AJJ	.
=147	=147
8GnyL	.
.	]
8B-J	.
4D)	.
=148	=148
4d	.
16c#XLL	.
16d	.
16e-	.
16dJJ	.
=149	=149
8gL	.
8B-J	.
(>4c#X^<	.
!!LO:LB:g=original
=150	=150
8d)	>
(>16B-LL	.
16AJJ	]
8GL	.
8F#XJ	.
=151	=151
4G)	.
*clefF4	*
8r	.
!	!LO:DY:rj
8DD`<	ff
=152	=152
8GG`<	.
8r	.
!	!LO:DY:rj
(>8DL	p
16dL	.
16cJJ	.
=153	=153
8B-L	.
8GJ)	.
8r	.
8D/	.
=154	=154
!	!LO:DY:rj
(<8GGL	ff
8BB-	.
8AA	.
8CJ	.
=155	=155
8BB-)	.
8r	.
!	!LO:DY:rj
8FL	p
*clefC4	*
(>16f^<L	.
16e-JJ	.
=156	=156
8dL	.
8B-J)	.
8r	.
*clefF4	*
!	!LO:DY:rj
8FF'<	ff
=157	=157
8BB-'<	.
8r	.
!	!LO:DY:rj
8FL	f
*clefC4	*
!LO:TX:t=P:problem:diminuendolike accent	!
16f^<L	.
(>16e-JJ	.
!!LO:LB:g=original
=158	=158
16dLL	.
16A	.
16B-	.
16GJJ	.
*clefF4	*
16ALL	.
16G#X	.
16A^<	.
16AAJJ	.
=159	=159
8D`>)	.
8r	.
*clefC4	*
(>8AL	>
16aL	.
16gJJ	]
=160	=160
8f)	.
*clefF4	*
[<8C^	.
8CL]	.
(>16cL	.
16BnJJ	.
=161	=161
8A)	.
*clefC4	*
[<8En^	.
8EL]	.
(>16enL	.
16dJJ	.
=162	=162
8c)	.
*clefF4	*
8C	.
8r	.
!	!LO:DY:rj
(<8C	ff
=163	=163
8GGL)	.
[8DJ	f
8D^<L]	.
(>16dL	.
16cJJ	.
=164	=164
8B-)	.
*clefC4	*
[8F^>	.
8FL]	.
(>16fL	.
16enJJ	.
!!LO:LB:g=original
=165	=165
8dL)	.
!LO:TX:a:t=P:problem:diminuendolike accent	!
[>8A^J	.
8AL]	.
(>16aL	.
16gJJ	.
=166	=166
8f)	.
8F	.
8r	.
*clefF4	*
!	!LO:DY:rj
(<8FF	p
=167	=167
4C)	.
(>4E-	<
=168	=168
4F)	[
(>4B-	.
=169	=169
4BB-)	.
(>4D-X	<
=170	=170
4E-)	[
4A-X	.
*clefC4	*
=171	=171
4g-X	>
4f	]]
=172	=172
4c	.
16d-XLL	<
16e-	.
16en	.
16fJJ	[
=173	=173
4a-X	]
4gny	.
=174	=174
(>4dn	.
4e-	.
=175	=175
8A-X)	.
8r	.
8r	.
*clefF4	*
!	!LO:DY:rj
(>8F	f
=176	=176
8G)	.
(<16GGLL	.
16FFJJ	.
8EEn)	.
(>8En	.
!!LO:LB:g=original
=177	=177
8F)	.
8r	.
8r	.
(>8D-X\	.
=178	=178
8E-)	.
(<16EE-LL	.
16DD-XJJ	.
8CCL)	.
(<8CJ	.
=179	=179
8D-X)	.
4d-X^<	.
(>8c	.
=180	=180
8B-)	.
4BB-^<	.
8AA-X	.
=181	=181
!	!LO:DY:rj
8GG	p
4G	.
(>8F	.
=182	=182
4En	.
4D-X)	.
=183	=183
8CL	.
!LO:TX:t=P:problem:diminuendolike accent	!
16c^<L	.
16B-JJ	.
8A-XL	.
8FJ	.
=184	=184
4En	.
(>4D-X	.
=185	=185
8CL)	f
!LO:TX:a:t=pizz.	!
8CC'<	.
8C'<J	.
8r	.
=186	=186
4r	.
!LO:TX:a:t=arco.	!
4E-X	.
=187	=187
8DL	.
16dL	.
16cJJ	.
!LO:TX:t=P:problem:diminuendolike accent	!
8B-^<L	.
8GJ	.
=188	=188
!	!LO:DY:rj
4F#X	p
4E-	.
!!LO:LB:g=original
=189	=189
8DL	.
16dL	.
16cJJ	.
[>4Bn	.
=190	=190
8BnXL]	pp
8dJ	.
4c	.
=191	=191
2F	<[
.	.
=192	=192
!	!LO:DY:rj
2G-X	f
=193	=193
2F^<	.
=194	=194
!	!LO:DY:rj
(>4G-X	p<
4F#X)	[
=195	=195
4En`>	f
4AA	.
=196	=196
(<4GG#X	.
4FF##X	.
=197	=197
*	*above
4GG#X	<
4AAn	[
=198	=198
4GG#y	>
4FF##X)	]
=199	=199
(<4GG#X	<
4AA-X)	[
=200	=200
4GGny	>
4FF#X	]
=201	=201
*	*below
4GG	<
4AA-X	[
=202	=202
4GG	>
4FF#X	]
=203	=203
8GG	[
8r	.
4r	.
=204	=204
4r	.
!	!LO:DY:rj
(>8DL	p
16dL	.
16cJJ	.
!!LO:LB:g=original
=205	=205
8BnL	.
8GJ)	.
4r	.
=206	=206
2rF	.
=207	=207
2rF	.
=208	=208
4r	.
!	!LO:DY:rj
8DL	p
(>16BnL	.
16AJJ	.
=209	=209
4G)	.
4r	.
=210	=210
2rF	.
=211	=211
2rF	.
=212	=212
2rF	.
=213	=213
2rF	.
=214	=214
2rF	.
=215	=215
!LO:TX:B:t=espres.	!
!LO:TX:t=P:problem:diminuendolike accent	!
(>4G^<	.
4C	.
=216	=216
8FL)	.
(>8FJ	.
4D)	.
=217	=217
(>4G^<	.
4C	.
=218	=218
8FL)	.
8FJ	.
4D	.
=219	=219
(>4G	<
4An	[
=220	=220
8cL	[
8B-	.
8A-X	.
8GJ)	.
=221	=221
4B-^<	.
(>8FL	.
8B-J	.
=222	=222
4G	.
4E-	.
=223	=223
4A-X	<[
4E-^<)	.
=224	=224
8GL	]
8GJ	.
4E-	.
=225	=225
4A-X^<	.
4E-	.
=226	=226
8GL	.
8GJ	.
4E-	.
!!LO:LB:g=original
=227	=227
(>4F	.
4E-	.
=228	=228
4.D)	.
(>8G	.
=229	=229
8FL	>
8E-	.
8D	.
8CJ	]
=230	=230
4.D)	<
8G	[
=231	=231
!LO:TX:t=P:problem:diminuendolike accent	!
4G^<	]
4C	.
=232	=232
8FL	.
8FJ	.
4D	.
=233	=233
4G	.
4C	.
=234	=234
8FL	.
8FJ	.
4D	.
=235	=235
4G	.
4C	.
!LO:TX:B:t=poco stretto crescendo.	!
.	.
=236	=236
8A-XL	.
8A-J	.
4F	.
=237	=237
4B-	.
4G	.
=238	=238
8cL	.
8cJ	.
4A-X	.
=239	=239
[>2G	p
=240	=240
4G]	.
(>16AnyLL	<
16B-	[
16c	>
16B-JJ)	]
=241	=241
2A	.
=242	=242
2A-X^<	.
!!LO:LB:g=original
=243	=243
4G	.
(>16DLL	.
16E-	.
16F	.
16GJJ)	.
=244	=244
8A-XL	.
(>8CJ	.
4E-)	.
=245	=245
4.E-^<	.
*clefC4	*
(>16e-^<LL	.
16d-XJJ	.
=246	=246
4c	.
4A)	.
*clefF4	*
=247	=247
4.D^<	.
(>16d^<LL	.
16cJJ	.
=248	=248
4B-	.
4G)	.
=249	=249
4D	.
(>16C#XLL	<
16D	.
16En	.
16F#XJJ	[[
=250	=250
8G^<L)	[
(>8BB-J	.
4D)	[
=251	=251
4C\	.
4B-	.
=252	=252
(>4A	<
4e-	[
=253	=253
4d	>
4A	]
=254	=254
4G	<
4d)	[
=255	=255
[>2c	>
=256	=256
4c]	]
!	!LO:DY:rj
4B-	p
=257	=257
2rF	.
=258	=258
2rF	.
=259	=259
2rF	.
=260	=260
2rF	.
=261	=261
2rF	.
=262	=262
2rF	.
*clefC4	*
!!LO:LB:g=original
=263	=263
*clefC4	*
!LO:TX:t=P:problem: łamanie systemu	!
!LO:TX:t=P:problem: klucz C4 przed kreską taktową	!
!	!LO:DY:rj
4e-	f
(>16dLL	.
16e-	.
16f	.
16e-JJ	.
=264	=264
8gL)	.
8B-`>J	.
4d^<	.
=265	=265
!LO:TX:B:t=sempre	!
4d-X	.
(>16cLL	.
16d-	.
16e-	f
16d-JJ	.
=266	=266
8gL	.
8B-`J)	.
(>4e-^<	.
=267	=267
4d-X)	.
4r	.
=268	=268
.	.
!LO:TX:a:t=1	!
2rc	.
*clefF4	*
=269	=269
!	!LO:DY:rj
4e-^<	f
4E-	.
=270	=270
8E-'>L	.
8E-'>J	.
4EE-	.
=271	=271
4DD	.
4r	.
=272	=272
2rF	.
=273	=273
2rF	.
=274	=274
2rF	.
=275	=275
2rF	.
=276	=276
2rF	.
=277	=277
2rF	.
=278	=278
2rF	.
=279	=279
(>4C	f
4E-	.
=280	=280
4C/	.
4D\)	.
=281	=281
!	!LO:DY:rj
(>4GG'<	p
4BB-'<	.
=282	=282
4D	.
16C#XLL	<
16D	.
16En	.
16F#XJJ	[
=283	=283
8GL)	[
8BB-`>J	.
4D^<	.
!!LO:LB:g=original
=284	=284
(>4c	.
4A	.
=285	=285
4G^<	.
8FL	.
8E-J)	.
=286	=286
4D	.
16C#XLL	.
16D	.
16En	.
16F#XJJ	.
=287	=287
8GL	[
8BB-J	.
4D	.
=288	=288
4c	.
4A	.
=289	=289
*^	*
8B-	2D 2GG	.
8rA	.	.
4rA	.	.
*v	*v	*
=290	=290
!	!LO:DY:rj
(>4D [<4GG	p
!LO:S:s=1:note:problem:note-level slur	!
!LO:TX:B:t=sempre piu	!
(>4G) 4GG_<	.
=291	=291
(>4D) 4GG_<	.
!LO:S:s=1:note:problem:note-level slur	!
(>4G) 4GG_<	.
=292	=292
(>4D) 4GG_<	<
!LO:S:s=1:note:problem:note-level slur	!
(>4G) 4GG_	.
=293	=293
(>4D) 4GG_<	.
!LO:S:s=1:note:problem:note-level slur	!
(>4G) 4GG_<	.
=294	=294
(>4D) 4GG_<	.
!LO:S:s=1:note:problem:note-level slur	!
(>4G) 4GG_<	.
=295	=295
8D) 8GG])	.
8r	.
4r	.
=296	=296
.	.
!LO:TX:a:t=1	!
2rF	.
!LO:TX:B:t=sempre piu	!
=297	=297
[>2D [<2GG	.
=298	=298
[>2D] [<2GG]	.
=299	=299
[>2D] [<2GG]	f
=300	=300
[>2D] [<2GG]	.
=301	=301
8D] 8GG]	.
8r	.
4r	.
=302	=302
!	!LO:DY:rj
4B-/ 4D/ 4GG/	ff
4r	.
=303	=303
!LO:TX:B:t=Fine	!
2GG/;>	.
==	==
*-	*-
!!!system-decoration: s1,s2{(s3,s4)}
!!!RDF**kern: > = above
!!!RDF**kern: < = below
!!title: @{OTL}; @{OPS} @{ONM} publisher: @{PPR}
!!!RDF**kern: N = linked
!!!RDF**dynam: > = "dimin.", fontstyle = "normal"
!!!RDF**dynam: < = "cres:", fontstyle = "bold"
!!!RDF**kern: i = editorial accidental
!!!ENC: Mateusz Mrugas
!!!END: 2019-10-08
!!!EED: Jędrzej Mróz
!!!EST: revision finished 2019-10-09
!!!rism-genre: Trio
!!!rism-key: G minor
!!!rism-opus: op.  8
!!!rism-title: Trio in G minor op.  8
!!!rism-permalink: https://opac.rism.info/search?id=300605222&View=rism
